ion/terminal.svg

<svg viewBox="0 0 512 512" xmlns="http://www.w3.org/2000/svg"><path d="M432 32H80h0c-35.34.03-63.97 28.66-64 64v320 0c.03 35.33 28.66 63.96 64 64h352v0c35.33-.04 63.96-28.67 64-64V96v-.001c-.04-35.34-28.67-63.97-64-64ZM96 256v0c-8.84 0-16.01-7.17-16.01-16 -.01-4.86 2.2-9.46 6-12.5l64.39-51.51 -64.39-51.51h0c-6.91-5.53-8.03-15.6-2.5-22.5 5.52-6.91 15.59-8.03 22.5-2.5l80 64v0c6.9 5.51 8.02 15.58 2.51 22.48 -.75.92-1.59 1.77-2.52 2.51l-80 64v0c-2.84 2.27-6.37 3.51-10 3.51Zm160 0h-64v0c-8.84 0-16-7.17-16-16 0-8.84 7.16-16 16-16h64v0c8.83 0 16 7.16 16 16 0 8.83-7.17 16-16 16Z"/></svg>

<svg xmlns="http://www.w3.org/2000/svg" width="512" height="512" viewBox="0 0 512 512"><path d="M432,32H80A64.07,64.07,0,0,0,16,96V416a64.07,64.07,0,0,0,64,64H432a64.07,64.07,0,0,0,64-64V96A64.07,64.07,0,0,0,432,32ZM96,256a16,16,0,0,1-10-28.49L150.39,176,86,124.49a16,16,0,1,1,20-25l80,64a16,16,0,0,1,0,25l-80,64A16,16,0,0,1,96,256Zm160,0H192a16,16,0,0,1,0-32h64a16,16,0,0,1,0,32Z"/></svg>
